X:1
T: Mrs Buchan of Auchmacoy
C:William Marshall
R:Strathspey
Q: 128
K:Bb
M:4/4
L:1/16
|:F2|B2ce B2F2 B2cd B2F2|d3c Bd3 c2C2 C2c2|B2cd B2F2 B2df dB3|d3c B2A2 B2B,2 B,2F2|
B2ce B2F2 B2cd B2F2|d3c Bd3 c2C2 C2c2|B2cd B2F2 B2df dB3|d3c B2A2 B2B,2 B,2de|
f2d2 b4 f2d2 b4|f2d2 b2d2 g2c2 c2de|f2d2 b4 agfe dcBA|B2G2 FGFE D2B,2 B,2de|
f2d2 b4 f2d2 b4|f2d2 b2d2 g2c2 c2de|f2d2 e2c2 d2B2 c2A2|BG3 F3E D2B,2 B,2:|
